usr/share/icons/biglinux-icons-material-dark/symbolic/status/ime-libkkc.svg

<?xml version="1.0" encoding="UTF-8"?>
<svg xmlns="http://www.w3.org/2000/svg" xmlns:xlink="http://www.w3.org/1999/xlink" xmlns:cc="http://creativecommons.org/ns#" xmlns:dc="http://purl.org/dc/elements/1.1/" xmlns:rdf="http://www.w3.org/1999/02/22-rdf-syntax-ns#" xmlns:inkscape="http://www.inkscape.org/namespaces/inkscape" xmlns:sodipodi="http://sodipodi.sourceforge.net/DTD/sodipodi-0.dtd" width="22" height="22">
    <style type="text/css" id="current-color-scheme">
      .ColorScheme-Text {
        color:#31363b;
      }
      .ColorScheme-Background {
        color:#eff0f1;
      }
      .ColorScheme-Highlight {
        color:#3daee9;
      }
      .ColorScheme-ViewText {
        color:#31363b;
      }
      .ColorScheme-ViewBackground {
        color:#fcfcfc;
      }
      .ColorScheme-ViewHover {
        color:#93cee9;
      }
      .ColorScheme-ViewFocus{
        color:#3daee9;
      }
      .ColorScheme-ButtonText {
        color:#31363b;
      }
      .ColorScheme-ButtonBackground {
        color:#eff0f1;
      }
      .ColorScheme-ButtonHover {
        color:#93cee9;
      }
      .ColorScheme-ButtonFocus{
        color:#3daee9;
      }
      </style>
    <g id="ime-libkkc" transform="translate(22,-103.99999) translate(-22,-66)">
    <rect style="fill:none;fill-opacity:1;stroke:none" id="rect4452" width="22" height="22" x="-2.4709701e-09" y="170"/>
    <path id="rect4456" transform="translate(-22,92)" d="m 25,81 0,0.5 0,15.5 16,0 0,-16 -16,0 z m 1,1 14,0 0,14 -14,0 0,-14 z m 1,3 0,8 1,0 0,-2.292969 L 30.292969,93 31,93 31.707031,93 32,93 32,90.707031 34.292969,93 l 1.414062,0 -3,-3 3,-3 -1.414062,0 L 32,89.292969 32,85 31,85 31,87 30.292969,87 28,89.292969 28,85 27,85 Z m 10,2 c -0.583333,0 -1.110664,0.153634 -1.478516,0.521484 C 35.153633,87.889344 35,88.41667 35,89 l 0,2 c 0,0.58333 0.153633,1.110656 0.521484,1.478516 C 35.889336,92.846366 36.416667,93 37,93 37.583333,93 38.110664,92.846366 38.478516,92.478516 38.846367,92.110656 39,91.58333 39,91 l -1,0 c 0,0.41667 -0.09637,0.639344 -0.228516,0.771484 C 37.639336,91.903634 37.416667,92 37,92 36.583333,92 36.360664,91.903604 36.228516,91.771484 36.096367,91.639344 36,91.41667 36,91 l 0,-2 c 0,-0.41667 0.09637,-0.639344 0.228516,-0.771484 C 36.360664,88.096366 36.583333,88 37,88 c 0.416667,0 0.639336,0.0964 0.771484,0.228516 C 37.903633,88.360656 38,88.58333 38,89 l 1,0 C 39,88.41667 38.846367,87.889344 38.478516,87.521484 38.110664,87.153634 37.583333,87 37,87 Z m -6,0.707031 0,4.585938 L 28.707031,90 31,87.707031 Z" style="fill:currentColor;fill-opacity:1;stroke:none" class="ColorScheme-Text"/>
  </g>
</svg>

<svg xmlns="http://www.w3.org/2000/svg" width="22" height="22">
<style id="current-color-scheme" type="text/css">
.ColorScheme-Contrast{color:#31363b}
</style>
<g id="ime-libkkc" transform="translate(0 -170)">
<path id="rect4452" d="M0 170h22v22H0z" style="fill:none;fill-opacity:1;stroke:none"/>
<path id="rect4456" d="M25 81v16h16V81zm1 1h14v14H26zm1 3v8h1v-2.293L30.293 93H32v-2.293L34.293 93h1.414l-3-3 3-3h-1.414L32 89.293V85h-1v2h-.707L28 89.293V85zm10 2c-.583 0-1.11.154-1.479.521-.367.368-.521.896-.521 1.479v2c0 .583.154 1.11.521 1.479.368.367.896.521 1.479.521s1.11-.154 1.479-.521c.367-.368.521-.896.521-1.479h-1c0 .417-.096.64-.229.771-.132.133-.354.229-.771.229s-.64-.096-.771-.229C36.096 91.64 36 91.417 36 91v-2c0-.417.096-.64.229-.771.132-.133.354-.229.771-.229s.64.096.771.229c.133.132.229.354.229.771h1c0-.583-.154-1.11-.521-1.479C38.11 87.154 37.583 87 37 87m-6 .707v4.586L28.707 90z" class="ColorScheme-Contrast" style="fill:currentColor;fill-opacity:1;stroke:none" transform="translate(-22 92)"/>
</g>
</svg>
